X:1
T:Title
%%score { ( 1 4 ) | ( 2 3 ) }
L:1/8
M:6/8
K:D
V:1 treble nm="Grand Piano"
V:4 treble 
V:2 bass 
V:3 bass 
V:1
 z3 z2[Q:1/4=81] F/[EG]/ | [FA][=F^G][^FA] [Fd][Gc][Ad] | cBB B2 E/F/ | GFG [CE][CA][EG] | %4
 [DF]3- [DF]2 [DF]/[EG]/ | [FA][=F^G][^FA] [Fd][Gc][Ad] | [Ac][B,GB][DGB] [^Ge]2 [Gd]/[Gd]/ | %7
 [Ac]BA ^GAB |[M:5/8] [CEA]-[CEA]- [CEA]3 |[M:1/8] A/B/ |[M:3/4] c2 cc Bc | [Fd]c [DGB] [DFA]2 F | %12
 BA FB AF |[M:5/8][K:bass] E-E- E3 |[M:1/8][K:treble] A |[M:3/4] AA A A2 A/B/ | %16
[M:7/8] ccd e3 [Ad] |[M:3/4] de dc Bc |[M:5/8] [Fd]-[Fd]- [Fd]3 |] %19
V:2
 z3 z2 [D,D]/[D,D]/ | [D,D][D,D][D,D] [D,A,][E,A,][F,A,] | %2
 [G,A][G,B,G][G,DG] [G,DG]2 [A,C]/[K:bass][A,D]/ | [A,CE][A,=C^D][A,^CE] [A,,A,][A,,A,][A,,A,] | %4
 z A,2- A,2 z | [D,D][D,D][D,D] [D,A,][E,A,][F,A,] | G,G,G, [E,E]2 [E,E]/[E,E]/ | %7
 [E,E][E,DE][E,CE] [E,B,E][E,CE][E,DE] |[M:5/8] A,E,C, A,,2 |[M:1/8][K:treble] [A,C]/[A,DA]/ | %10
[M:3/4] [A,EG]2 [A,EG][A,EG] [A,DG][A,EG] | z A[K:bass] D, D,2 F, | B,A, F,B, A,F, | %13
[M:5/8][K:treble] [A,C]-[A,C]- [A,C]3 |[M:1/8] [A,CE] | %15
[M:3/4] [A,CE][A,CE] [A,CE] [A,CE]2 [A,E]/-[A,DE]/ |[M:7/8] [A,EA][A,EA][A,DF] [A,CA]3 [F,A,] | %17
[M:3/4] [G,B,G][G,^A,G] [G,B,G][A,E] [A,G][A,G] |[M:5/8][K:bass] z A,- A,3 |] %19
V:3
 x6 | x6 | x11/2[K:bass] x/ | x6 | .[D,A,]2 F, D,2 D,/[D,D]/ | x6 | x6 | x6 |[M:5/8] x5 | %9
[M:1/8][K:treble] x |[M:3/4] x6 | [D,D]2[K:bass] z2 z2 | x6 |[M:5/8][K:treble] x5 |[M:1/8] x | %15
[M:3/4] z2 z2 z .C |[M:7/8] x7 |[M:3/4] x6 |[M:5/8][K:bass] [D,A,] z F, D,2 |] %19
V:4
 x6 | x6 | x6 | x6 | x6 | x6 | x6 | x6 |[M:5/8] x5 |[M:1/8] x |[M:3/4] x6 | x6 | x6 | %13
[M:5/8][K:bass] z A,,A,, A,,2 |[M:1/8][K:treble] x |[M:3/4] x6 |[M:7/8] x7 |[M:3/4] x6 | %18
[M:5/8] x5 |] %19

